public/assets/gear-blue.svg

<svg width="238" height="238" viewBox="0 0 238 238" fill="none" xmlns="http://www.w3.org/2000/svg">
<path d="M118.556 81.0602C97.8495 81.0602 81.0491 97.8606 81.0491 118.581C81.0491 139.28 97.8495 156.11 118.556 156.11C139.261 156.11 155.943 139.28 155.943 118.581C155.943 97.8606 139.269 81.0602 118.556 81.0602ZM193.754 140.125L186.995 156.407L200.646 183.212L183.927 199.931L156.499 186.976L140.218 193.661L131.954 218.962L130.895 222.319H107.269L97.0417 193.757L80.76 187.043L53.9178 200.635L37.2063 183.931L50.1457 156.488L43.4389 140.221L14.8329 130.883V107.265L43.4092 97.0232L50.1161 80.7711L38.0956 57.0415L36.5097 53.9289L53.199 37.2396L80.6637 50.1716L96.9232 43.45L105.179 18.164L106.246 14.8143H129.872L140.106 43.4055L156.344 50.1272L183.223 36.506L199.927 53.1953L186.988 80.6155L193.672 96.9046L222.33 106.227V129.839L193.761 140.117L193.754 140.125Z" fill="#64BAFF"/>
</svg>

<svg width="238" height="238" fill="none" xmlns="http://www.w3.org/2000/svg"><path d="M118.556 81.06c-20.706 0-37.507 16.8-37.507 37.521 0 20.699 16.8 37.529 37.507 37.529 20.705 0 37.387-16.83 37.387-37.529 0-20.72-16.674-37.52-37.387-37.52Zm75.198 59.065-6.759 16.282 13.651 26.805-16.719 16.719-27.428-12.955-16.281 6.685-8.264 25.301-1.059 3.357h-23.626l-10.227-28.562-16.282-6.714-26.842 13.592-16.712-16.704 12.94-27.443-6.707-16.267-28.606-9.338v-23.618l28.576-10.242 6.707-16.252-12.02-23.73-1.586-3.112 16.689-16.69 27.465 12.933 16.26-6.722 8.255-25.286 1.067-3.35h23.626l10.234 28.592 16.238 6.721 26.879-13.621 16.704 16.69-12.939 27.42 6.684 16.289 28.658 9.322v23.612l-28.569 10.278-.007.008Z" fill="#64BAFF"/></svg>
